X: 24273
T: Lose The Head
R: reel
M: 4/4
K: Dmajor
(3Bcd eg ~f3a|~g3f gfed|(3Bcd eg ~f3a|~g3e fedz:|
|:a2^ga ~f3z|agfa gb~b2|ba^ga fzaf|~g3e fedg:|
|:fedf edce|dc (3Bcd cBAc|BAGB AGFG|1 EF (3GFE FEDz:|2 EF (3GFE FEDA||
DFAd ~f3B|eGBg gfed|FAde faaf|gbeg fedz||
dfa^g =gafg|adfa gb~b2|ba^ga fzaf|gBeg fedf||
fafa eaec|dcdB cAcA|BdBd AdAd|~G3E FEDz||

